Themes/OneUI/assets/svg/sec_ic_settings_security.svg

<svg width="28" height="28" viewBox="0 0 28 28" fill="none" xmlns="http://www.w3.org/2000/svg">
<g clip-path="url(#clip0_1_1437)">
<path d="M24.856 3.14401C23.13 1.52161 20.7739 0.601214 18.1738 0.256914C15.6907 -0.072186 14 0.00881404 14 0.00881404C14 0.00881404 12.309 -0.072186 9.82579 0.256914C7.22579 0.601214 4.86979 1.52161 3.14429 3.14401C1.52149 4.86981 0.601191 7.22591 0.256691 9.82591C-0.0724094 12.3089 0.0088906 13.9999 0.0088906 13.9999C0.0088906 13.9999 -0.0724094 15.6907 0.256691 18.1739C0.601191 20.7737 1.52149 23.13 3.14409 24.8558C4.86979 26.4784 7.22579 27.3986 9.82579 27.7433C12.309 28.0722 14 27.9912 14 27.9912C14 27.9912 15.6907 28.0722 18.1738 27.7433C20.7739 27.3986 23.13 26.4784 24.8556 24.8558C26.4786 23.13 27.3988 20.7737 27.7433 18.1739C28.0722 15.6907 27.9912 13.9999 27.9912 13.9999C27.9912 13.9999 28.0722 12.3089 27.7433 9.82591C27.3988 7.22591 26.4786 4.86981 24.856 3.14401Z" fill="#7B84FF"/>
<path d="M14.3294 21.5913C15.0198 21.3104 16.2194 20.7049 17.3421 19.7512C19.2627 18.1184 20.2374 16.1505 20.2374 13.8992V9.19248C20.2374 8.54938 19.7632 8.01038 19.1279 7.91328C17.4357 7.65518 16.0261 7.16167 14.5464 6.46518C14.2008 6.30328 13.7992 6.30328 13.4536 6.46518C11.9739 7.16077 10.5643 7.65518 8.8712 7.91328C8.2359 8.01038 7.7626 8.54938 7.7626 9.19248V13.8992C7.7626 16.1505 8.7373 18.1184 10.6579 19.7512C11.7814 20.7049 12.9802 21.3104 13.6706 21.5913C13.8823 21.6779 14.1177 21.6779 14.3294 21.5913Z" fill="white"/>
</g>
<defs>
<clipPath id="clip0_1_1437">
<rect width="28" height="28" fill="white"/>
</clipPath>
</defs>
</svg>

<?xml version="1.0" encoding="UTF-8" standalone="no"?>
<svg
   width="28.000021"
   height="28.000021"
   viewBox="0 0 28.000021 28.000021"
   fill="none"
   version="1.1"
   id="svg2163"
   sodipodi:docname="sec_ic_settings_security.svg"
   xmlns:inkscape="http://www.inkscape.org/namespaces/inkscape"
   xmlns:sodipodi="http://sodipodi.sourceforge.net/DTD/sodipodi-0.dtd"
   xmlns="http://www.w3.org/2000/svg"
   xmlns:svg="http://www.w3.org/2000/svg">
  <sodipodi:namedview
     id="namedview2165"
     pagecolor="#ffffff"
     bordercolor="#666666"
     borderopacity="1.0"
     inkscape:showpageshadow="2"
     inkscape:pageopacity="0.0"
     inkscape:pagecheckerboard="0"
     inkscape:deskcolor="#d1d1d1" />
  <g
     clip-path="url(#clip0_1_1437)"
     id="g2156">
    <path
       d="M 24.856,3.14401 C 23.13,1.52161 20.7739,0.601214 18.1738,0.256914 15.6907,-0.072186 14,0.00881404 14,0.00881404 c 0,0 -1.691,-0.08100004 -4.17421,0.24809996 -2.6,0.3443 -4.956,1.264696 -6.6815,2.887096 -1.6228,1.7258 -2.543099,4.0819 -2.887599,6.6819 -0.3291004,2.48299 -0.2478004,4.17399 -0.2478004,4.17399 0,0 -0.0813,1.6908 0.2478004,4.174 0.3445,2.5998 1.264799,4.9561 2.887399,6.6819 1.7257,1.6226 4.0817,2.5428 6.6817,2.8875 C 12.309,28.0722 14,27.9912 14,27.9912 c 0,0 1.6907,0.081 4.1738,-0.2479 2.6001,-0.3447 4.9562,-1.2649 6.6818,-2.8875 1.623,-1.7258 2.5432,-4.0821 2.8877,-6.6819 0.3289,-2.4832 0.2479,-4.174 0.2479,-4.174 0,0 0.081,-1.691 -0.2479,-4.17399 -0.3445,-2.6 -1.2647,-4.9561 -2.8873,-6.6819 z"
       fill="#7b84ff"
       id="path2152" />
    <path
       d="m 14.3294,21.5913 c 0.6904,-0.2809 1.89,-0.8864 3.0127,-1.8401 1.9206,-1.6328 2.8953,-3.6007 2.8953,-5.852 V 9.19248 c 0,-0.6431 -0.4742,-1.1821 -1.1095,-1.2792 -1.6922,-0.2581 -3.1018,-0.75161 -4.5815,-1.4481 -0.3456,-0.1619 -0.7472,-0.1619 -1.0928,0 -1.4797,0.69559 -2.8893,1.19 -4.5824,1.4481 -0.6353,0.0971 -1.1086,0.6361 -1.1086,1.2792 v 4.70672 c 0,2.2513 0.9747,4.2192 2.8953,5.852 1.1235,0.9537 2.3223,1.5592 3.0127,1.8401 0.2117,0.0866 0.4471,0.0866 0.6588,0 z"
       fill="#ffffff"
       id="path2154" />
  </g>
  <defs
     id="defs2161">
    <clipPath
       id="clip0_1_1437">
      <rect
         width="28"
         height="28"
         fill="#ffffff"
         id="rect2158"
         x="0"
         y="0" />
    </clipPath>
  </defs>
</svg>
